SVG_Azure_Grouped/Networking/Azure Cache for Redis.svg

<?xml version="1.0" encoding="UTF-8" standalone="no"?>
<!-- Generated by Microsoft Visio, SVG Export Azure Cache for Redis.svg Page-1 -->

<svg
   xmlns:dc="http://purl.org/dc/elements/1.1/"
   xmlns:cc="http://creativecommons.org/ns#"
   xmlns:rdf="http://www.w3.org/1999/02/22-rdf-syntax-ns#"
   xmlns:svg="http://www.w3.org/2000/svg"
   xmlns="http://www.w3.org/2000/svg"
   xmlns:xlink="http://www.w3.org/1999/xlink"
   xmlns:sodipodi="http://sodipodi.sourceforge.net/DTD/sodipodi-0.dtd"
   xmlns:inkscape="http://www.inkscape.org/namespaces/inkscape"
   width="0.78741354in"
   height="0.62985831in"
   viewBox="0 0 56.693683 45.349896"
   xml:space="preserve"
   class="st7"
   version="1.1"
   id="svg88"
   sodipodi:docname="Azure Cache for Redis.svg"
   style="font-size:12px;overflow:visible;color-interpolation-filters:sRGB;fill:none;fill-rule:evenodd;stroke-linecap:square;stroke-miterlimit:3"
   inkscape:version="0.92.5 (2060ec1f9f, 2020-04-08)"><metadata
   id="metadata92"><rdf:RDF><cc:Work
       rdf:about=""><dc:format>image/svg+xml</dc:format><dc:type
         rdf:resource="http://purl.org/dc/dcmitype/StillImage" /></cc:Work></rdf:RDF></metadata><sodipodi:namedview
   pagecolor="#ffffff"
   bordercolor="#666666"
   borderopacity="1"
   objecttolerance="10"
   gridtolerance="10"
   guidetolerance="10"
   inkscape:pageopacity="0"
   inkscape:pageshadow="2"
   inkscape:window-width="640"
   inkscape:window-height="480"
   id="namedview90"
   showgrid="false"
   inkscape:zoom="1.5612629"
   inkscape:cx="37.795252"
   inkscape:cy="30.225663"
   inkscape:window-x="0"
   inkscape:window-y="0"
   inkscape:window-maximized="0"
   inkscape:current-layer="svg88" />
	<style
   type="text/css"
   id="style2">
	<![CDATA[
		.st1 {fill:url(#grad0-6);stroke:none;stroke-linecap:butt;stroke-width:34}
		.st2 {fill:#e8e8e8;stroke:none;stroke-linecap:butt;stroke-width:34}
		.st3 {fill:#50e6ff;stroke:none;stroke-linecap:butt;stroke-width:34}
		.st4 {fill:#32bedd;stroke:none;stroke-linecap:butt;stroke-width:34}
		.st5 {fill:#50e6ff}
		.st6 {stroke:none;stroke-linecap:butt;stroke-width:34}
		.st7 {fill:none;fill-rule:evenodd;font-size:12px;overflow:visible;stroke-linecap:square;stroke-miterlimit:3}
	]]>
	</style>

	<defs
   id="Patterns_And_Gradients">
		<linearGradient
   id="grad0-6"
   x1="0"
   y1="0"
   x2="1"
   y2="0">
			<stop
   offset="0"
   stop-color="#005ba1"
   stop-opacity="1"
   id="stop4" />
			<stop
   offset="0.07"
   stop-color="#0060a9"
   stop-opacity="1"
   id="stop6" />
			<stop
   offset="0.36"
   stop-color="#0071c8"
   stop-opacity="1"
   id="stop8" />
			<stop
   offset="0.52"
   stop-color="#0078d4"
   stop-opacity="1"
   id="stop10" />
			<stop
   offset="1"
   stop-color="#005ba1"
   stop-opacity="1"
   id="stop12" />
		</linearGradient>
	<linearGradient
   inkscape:collect="always"
   xlink:href="#grad0-6"
   id="linearGradient4602"
   x1="0"
   y1="87.509882"
   x2="26.524547"
   y2="87.509882"
   gradientTransform="scale(1.0058607,0.99417343)"
   gradientUnits="userSpaceOnUse" /><linearGradient
   inkscape:collect="always"
   xlink:href="#grad0-6"
   id="linearGradient4604"
   x1="0"
   y1="87.509882"
   x2="26.524547"
   y2="87.509882"
   gradientTransform="scale(1.0058607,0.99417343)"
   gradientUnits="userSpaceOnUse" /><linearGradient
   inkscape:collect="always"
   xlink:href="#grad0-6"
   id="linearGradient4606"
   x1="0"
   y1="87.509882"
   x2="26.524547"
   y2="87.509882"
   gradientTransform="scale(1.0058607,0.99417343)"
   gradientUnits="userSpaceOnUse" /></defs>
	<g
   id="g86"
   transform="translate(-34.000237,-34.0044)">
		<title
   id="title16">Page-1</title>
		<g
   id="group18162-1"
   transform="translate(34,-34.0157)">
			<title
   id="title18">Azure Cache for Redis.18162</title>
			<g
   id="group18163-2">
				<title
   id="title20">Icon-databases-137</title>
				<g
   id="shape18164-3"
   transform="translate(30.0139,-14.8236)">
					<title
   id="title22">Sheet.18164</title>
					<path
   d="M 13.34,91.18 C 5.97,91.18 0,89.32 0,87 v 22.21 c 0,2.26 5.87,4.13 13.17,4.16 h 0.17 c 7.37,0 13.34,-1.87 13.34,-4.16 V 87 c 0,2.32 -5.97,4.18 -13.34,4.18 z"
   class="st1"
   id="path24"
   inkscape:connector-curvature="0"
   style="fill:url(#linearGradient4602);stroke:none;stroke-width:34;stroke-linecap:butt" />
				</g>
				<g
   id="shape18165-7"
   transform="translate(30.0139,-37.0099)">
					<title
   id="title27">Sheet.18165</title>
					<path
   d="m 26.68,109.18 c 0,2.32 -5.97,4.19 -13.34,4.19 C 5.97,113.37 0,111.5 0,109.18 c 0,-2.32 5.97,-4.15 13.34,-4.15 7.37,0 13.34,1.86 13.34,4.15 z"
   class="st2"
   id="path29"
   inkscape:connector-curvature="0"
   style="fill:#e8e8e8;stroke:none;stroke-width:34;stroke-linecap:butt" />
				</g>
				<g
   id="shape18166-9"
   transform="translate(33.1153,-38.8751)">
					<title
   id="title32">Sheet.18166</title>
					<path
   d="m 20.48,110.72 c 0,1.47 -4.61,2.65 -10.24,2.65 C 4.6,113.37 0,112.19 0,110.72 c 0,-1.47 4.6,-2.65 10.24,-2.65 5.63,0 10.24,1.18 10.24,2.65 z"
   class="st3"
   id="path34"
   inkscape:connector-curvature="0"
   style="fill:#50e6ff;stroke:none;stroke-width:34;stroke-linecap:butt" />
				</g>
				<g
   id="shape18167-11"
   transform="translate(35.2497,-38.8751)">
					<title
   id="title37">Sheet.18167</title>
					<path
   d="m 8.1,111.34 a 28.8467,28.3056 -180 0 0 -8.1,0.98 26.012,25.5241 -180 0 0 8.1,1.05 26.012,25.5241 -180 0 0 8.11,-1.05 28.8467,28.3056 -180 0 0 -8.11,-0.98 z"
   class="st4"
   id="path39"
   inkscape:connector-curvature="0"
   style="fill:#32bedd;stroke:none;stroke-width:34;stroke-linecap:butt" />
				</g>
				<g
   id="shape18168-13"
   transform="translate(0,-14.8236)">
					<title
   id="title42">Sheet.18168</title>
					<path
   d="M 13.34,91.18 C 5.97,91.18 0,89.32 0,87 v 22.21 c 0,2.26 5.87,4.13 13.34,4.16 7.37,0 13.34,-1.87 13.34,-4.16 V 87 c 0,2.32 -5.97,4.18 -13.34,4.18 z"
   class="st1"
   id="path44"
   inkscape:connector-curvature="0"
   style="fill:url(#linearGradient4604);stroke:none;stroke-width:34;stroke-linecap:butt" />
				</g>
				<g
   id="shape18169-16"
   transform="translate(0,-37.0099)">
					<title
   id="title47">Sheet.18169</title>
					<path
   d="m 26.68,109.18 c 0,2.32 -5.97,4.19 -13.34,4.19 C 5.97,113.37 0,111.5 0,109.18 c 0,-2.32 5.97,-4.15 13.34,-4.15 7.37,0 13.34,1.86 13.34,4.15 z"
   class="st2"
   id="path49"
   inkscape:connector-curvature="0"
   style="fill:#e8e8e8;stroke:none;stroke-width:34;stroke-linecap:butt" />
				</g>
				<g
   id="shape18170-18"
   transform="translate(3.10144,-38.8751)">
					<title
   id="title52">Sheet.18170</title>
					<path
   d="m 20.48,110.72 c 0,1.47 -4.61,2.65 -10.24,2.65 C 4.6,113.37 0,112.19 0,110.72 c 0,-1.47 4.6,-2.65 10.24,-2.65 5.63,0 10.24,1.18 10.24,2.65 z"
   class="st3"
   id="path54"
   inkscape:connector-curvature="0"
   style="fill:#50e6ff;stroke:none;stroke-width:34;stroke-linecap:butt" />
				</g>
				<g
   id="shape18171-20"
   transform="translate(5.23576,-38.8751)">
					<title
   id="title57">Sheet.18171</title>
					<path
   d="m 8.1,111.34 a 28.8467,28.3056 -180 0 0 -8.1,0.98 26.012,25.5241 -180 0 0 8.1,1.05 26.012,25.5241 -180 0 0 8.11,-1.05 28.8467,28.3056 -180 0 0 -8.11,-0.98 z"
   class="st4"
   id="path59"
   inkscape:connector-curvature="0"
   style="fill:#32bedd;stroke:none;stroke-width:34;stroke-linecap:butt" />
				</g>
				<g
   id="shape18172-22"
   transform="translate(15.0069)">
					<title
   id="title62">Sheet.18172</title>
					<path
   d="M 13.34,91.18 C 5.97,91.18 0,89.32 0,87 v 22.21 c 0,2.29 5.87,4.13 13.17,4.16 h 0.17 c 7.37,0 13.34,-1.87 13.34,-4.16 V 87 c 0,2.32 -5.97,4.18 -13.34,4.18 z"
   class="st1"
   id="path64"
   inkscape:connector-curvature="0"
   style="fill:url(#linearGradient4606);stroke:none;stroke-width:34;stroke-linecap:butt" />
				</g>
				<g
   id="shape18173-25"
   transform="translate(15.0069,-22.1863)">
					<title
   id="title67">Sheet.18173</title>
					<path
   d="m 26.68,109.18 c 0,2.32 -5.97,4.19 -13.34,4.19 C 5.97,113.37 0,111.5 0,109.18 c 0,-2.32 5.97,-4.15 13.34,-4.15 7.37,0 13.34,1.86 13.34,4.15 z"
   class="st2"
   id="path69"
   inkscape:connector-curvature="0"
   style="fill:#e8e8e8;stroke:none;stroke-width:34;stroke-linecap:butt" />
				</g>
				<g
   id="shape18174-27"
   transform="translate(18.1084,-24.0515)">
					<title
   id="title72">Sheet.18174</title>
					<path
   d="m 20.48,110.72 c 0,1.47 -4.61,2.65 -10.24,2.65 C 4.6,113.37 0,112.19 0,110.72 c 0,-1.47 4.6,-2.52 10.24,-2.52 5.63,0 10.24,1.18 10.24,2.65 z"
   class="st5"
   id="path74"
   inkscape:connector-curvature="0"
   style="fill:#50e6ff" />
					<path
   d="m 20.48,110.72 c 0,1.47 -4.61,2.65 -10.24,2.65 C 4.6,113.37 0,112.19 0,110.72 c 0,-1.47 4.6,-2.52 10.24,-2.52 5.63,0 10.24,1.18 10.24,2.65"
   class="st6"
   id="path76"
   inkscape:connector-curvature="0"
   style="stroke:none;stroke-width:34;stroke-linecap:butt" />
				</g>
				<g
   id="shape18175-30"
   transform="translate(20.2427,-24.0515)">
					<title
   id="title79">Sheet.18175</title>
					<path
   d="m 8.1,111.47 a 28.8467,28.3056 -180 0 0 -8.1,0.98 26.012,25.5241 -180 0 0 8.1,0.92 26.012,25.5241 -180 0 0 8.11,-1.05 28.8467,28.3056 -180 0 0 -8.11,-0.85 z"
   class="st4"
   id="path81"
   inkscape:connector-curvature="0"
   style="fill:#32bedd;stroke:none;stroke-width:34;stroke-linecap:butt" />
				</g>
			</g>
		</g>
	</g>
</svg>

<?xml version="1.0" encoding="UTF-8" standalone="no"?>
<!DOCTYPE svg PUBLIC "-//W3C//DTD SVG 1.1//EN" "http://www.w3.org/Graphics/SVG/1.1/DTD/svg11.dtd">
<!-- Generated by Microsoft Visio, SVG Export Azure Cache for Redis.svg Page-1 -->
<svg xmlns="http://www.w3.org/2000/svg" xmlns:xlink="http://www.w3.org/1999/xlink" xmlns:ev="http://www.w3.org/2001/xml-events"
		width="1.73185in" height="1.57458in" viewBox="0 0 124.693 113.37" xml:space="preserve" color-interpolation-filters="sRGB"
		class="st7">
	<style type="text/css">
	<![CDATA[
		.st1 {fill:url(#grad0-6);stroke:none;stroke-linecap:butt;stroke-width:34}
		.st2 {fill:#e8e8e8;stroke:none;stroke-linecap:butt;stroke-width:34}
		.st3 {fill:#50e6ff;stroke:none;stroke-linecap:butt;stroke-width:34}
		.st4 {fill:#32bedd;stroke:none;stroke-linecap:butt;stroke-width:34}
		.st5 {fill:#50e6ff}
		.st6 {stroke:none;stroke-linecap:butt;stroke-width:34}
		.st7 {fill:none;fill-rule:evenodd;font-size:12px;overflow:visible;stroke-linecap:square;stroke-miterlimit:3}
	]]>
	</style>

	<defs id="Patterns_And_Gradients">
		<linearGradient id="grad0-6" x1="0" y1="0" x2="1" y2="0" gradientTransform="rotate(0 0.5 0.5)">
			<stop offset="0" stop-color="#005ba1" stop-opacity="1"/>
			<stop offset="0.07" stop-color="#0060a9" stop-opacity="1"/>
			<stop offset="0.36" stop-color="#0071c8" stop-opacity="1"/>
			<stop offset="0.52" stop-color="#0078d4" stop-opacity="1"/>
			<stop offset="1" stop-color="#005ba1" stop-opacity="1"/>
		</linearGradient>
	</defs>
	<g>
		<title>Page-1</title>
		<g id="group17732-1" transform="translate(34,-34.0157)">
			<title>Azure Cache for Redis.17732</title>
			<g id="group17733-2">
				<title>Icon-databases-137</title>
				<g id="shape17734-3" transform="translate(30.0139,-14.8236)">
					<title>Sheet.17734</title>
					<path d="M13.34 91.18 C5.97 91.18 0 89.32 0 87 L0 109.21 C0 111.47 5.87 113.34 13.17 113.37 L13.34 113.37 C20.71
								 113.37 26.68 111.5 26.68 109.21 L26.68 87 C26.68 89.32 20.71 91.18 13.34 91.18 Z" class="st1"/>
				</g>
				<g id="shape17735-7" transform="translate(30.0139,-37.0099)">
					<title>Sheet.17735</title>
					<path d="M26.68 109.18 C26.68 111.5 20.71 113.37 13.34 113.37 C5.97 113.37 0 111.5 0 109.18 C0 106.86 5.97 105.03
								 13.34 105.03 C20.71 105.03 26.68 106.89 26.68 109.18 Z" class="st2"/>
				</g>
				<g id="shape17736-9" transform="translate(33.1153,-38.8751)">
					<title>Sheet.17736</title>
					<path d="M20.48 110.72 C20.48 112.19 15.87 113.37 10.24 113.37 C4.6 113.37 0 112.19 0 110.72 C0 109.25 4.6 108.07
								 10.24 108.07 C15.87 108.07 20.48 109.25 20.48 110.72 Z" class="st3"/>
				</g>
				<g id="shape17737-11" transform="translate(35.2497,-38.8751)">
					<title>Sheet.17737</title>
					<path d="M8.1 111.34 A28.8467 28.3056 -180 0 0 -0 112.32 A26.012 25.5241 -180 0 0 8.1 113.37 A26.012 25.5241
								 -180 0 0 16.21 112.32 A28.8467 28.3056 -180 0 0 8.1 111.34 Z" class="st4"/>
				</g>
				<g id="shape17738-13" transform="translate(0,-14.8236)">
					<title>Sheet.17738</title>
					<path d="M13.34 91.18 C5.97 91.18 0 89.32 0 87 L0 109.21 C0 111.47 5.87 113.34 13.34 113.37 C20.71 113.37 26.68
								 111.5 26.68 109.21 L26.68 87 C26.68 89.32 20.71 91.18 13.34 91.18 Z" class="st1"/>
				</g>
				<g id="shape17739-16" transform="translate(0,-37.0099)">
					<title>Sheet.17739</title>
					<path d="M26.68 109.18 C26.68 111.5 20.71 113.37 13.34 113.37 C5.97 113.37 0 111.5 0 109.18 C0 106.86 5.97 105.03
								 13.34 105.03 C20.71 105.03 26.68 106.89 26.68 109.18 Z" class="st2"/>
				</g>
				<g id="shape17740-18" transform="translate(3.10144,-38.8751)">
					<title>Sheet.17740</title>
					<path d="M20.48 110.72 C20.48 112.19 15.87 113.37 10.24 113.37 C4.6 113.37 0 112.19 0 110.72 C0 109.25 4.6 108.07
								 10.24 108.07 C15.87 108.07 20.48 109.25 20.48 110.72 Z" class="st3"/>
				</g>
				<g id="shape17741-20" transform="translate(5.23576,-38.8751)">
					<title>Sheet.17741</title>
					<path d="M8.1 111.34 A28.8467 28.3056 -180 0 0 0 112.32 A26.012 25.5241 -180 0 0 8.1 113.37 A26.012 25.5241 -180
								 0 0 16.21 112.32 A28.8467 28.3056 -180 0 0 8.1 111.34 Z" class="st4"/>
				</g>
				<g id="shape17742-22" transform="translate(15.0069,0)">
					<title>Sheet.17742</title>
					<path d="M13.34 91.18 C5.97 91.18 0 89.32 0 87 L0 109.21 C0 111.5 5.87 113.34 13.17 113.37 L13.34 113.37 C20.71
								 113.37 26.68 111.5 26.68 109.21 L26.68 87 C26.68 89.32 20.71 91.18 13.34 91.18 Z" class="st1"/>
				</g>
				<g id="shape17743-25" transform="translate(15.0069,-22.1863)">
					<title>Sheet.17743</title>
					<path d="M26.68 109.18 C26.68 111.5 20.71 113.37 13.34 113.37 C5.97 113.37 0 111.5 0 109.18 C0 106.86 5.97 105.03
								 13.34 105.03 C20.71 105.03 26.68 106.89 26.68 109.18 Z" class="st2"/>
				</g>
				<g id="shape17744-27" transform="translate(18.1084,-24.0515)">
					<title>Sheet.17744</title>
					<path d="M20.48 110.72 C20.48 112.19 15.87 113.37 10.24 113.37 C4.6 113.37 0 112.19 0 110.72 C0 109.25 4.6 108.2
								 10.24 108.2 C15.87 108.2 20.48 109.38 20.48 110.85 L20.48 110.72 Z" class="st5"/>
					<path d="M20.48 110.72 C20.48 112.19 15.87 113.37 10.24 113.37 C4.6 113.37 0 112.19 0 110.72 C0 109.25 4.6 108.2
								 10.24 108.2 C15.87 108.2 20.48 109.38 20.48 110.85" class="st6"/>
				</g>
				<g id="shape17745-30" transform="translate(20.2427,-24.0515)">
					<title>Sheet.17745</title>
					<path d="M8.1 111.47 A28.8467 28.3056 -180 0 0 0 112.45 A26.012 25.5241 -180 0 0 8.1 113.37 A26.012 25.5241 -180
								 0 0 16.21 112.32 A28.8467 28.3056 -180 0 0 8.1 111.47 Z" class="st4"/>
				</g>
			</g>
		</g>
	</g>
</svg>
